packages/synapse-interface/assets/chains/moonbeam.svg

<svg fill="none" height="48" viewBox="0 0 48 48" width="48" xmlns="http://www.w3.org/2000/svg"><rect fill="#1d0e2d" height="48" rx="24" width="48"/><path d="m27.1761 9.71997c-2.7635.00108-5.4134 1.09983-7.3669 3.05443-1.9535 1.9547-3.0506 4.6053-3.05 7.3688v.0217.017c.0075.1309.0648.254.1601.344.0954.09.2217.1399.3528.1397h19.8079c.1311.0002.2573-.0498.3527-.1397.0954-.09.1526-.2131.16-.344l.0009-.017c0-.0074 0-.0144 0-.0217.0006-2.7636-1.0966-5.4143-3.0502-7.3689-1.9536-1.9547-4.6037-3.05338-7.3673-3.05433z" fill="#53cbc8"/><g fill="#e1147b"><path d="m9.86228 31.7809c-.0001.1254-.03736.2479-.10708.3521-.06971.1041-.16873.1853-.28457.2332-.11583.0479-.24326.0604-.3662.0359-.12293-.0245-.23584-.0849-.32445-.1736-.08862-.0886-.14896-.2016-.1734-.3245-.02443-.1229-.01187-.2504.0361-.3662s.12919-.2148.23341-.2844c.10422-.0697.22674-.1069.35209-.1069.0833 0 .16579.0164.24274.0483.07696.0319.14687.0786.20576.1375s.10558.1289.13743.2059c.03185.0769.04822.1594.04817.2427z"/><path d="m36.391 28.2714h-21.2539c-.1082.0002-.2144.0284-.3084.0818-.094.0535-.1725.1305-.2278.2234s-.0856.1985-.0879.3066.0234.215.0748.3101c.0034.0067.007.0133.0105.0198.0536.099.1329.1817.2296.2393.0968.0576.2073.0879.3199.0877h21.233c.1125.0002.2231-.0302.3198-.0877.0967-.0576.1761-.1403.2296-.2393l.0105-.0198c.0514-.0952.0771-.2021.0748-.3102-.0024-.1081-.0327-.2138-.0881-.3067s-.134-.1698-.228-.2232c-.094-.0535-.2003-.0817-.3084-.0818z"/><path d="m39.215 22.521h-24.0785c-.085.0002-.169.0177-.247.0515s-.1483.0831-.2066.1449c-.0584.0618-.1035.1349-.1326.2147-.0292.0799-.0417.1648-.037.2497 0 .0066 0 .0132.001.0199.009.1591.0786.3088.1946.4182.1159.1094.2694.1701.4288.1698h24.0773c.1594.0003.3128-.0605.4288-.1699.1159-.1093.1856-.259.1946-.4181 0-.0067 0-.0133.001-.0199.0048-.085-.0079-.17-.0371-.2499-.0292-.08-.0744-.1531-.1329-.2149-.0584-.0619-.1289-.1112-.207-.1449-.0781-.0336-.1623-.0511-.2474-.0511z"/><path d="m30.1491 36.8969h-10.8516c-.1408 0-.2774.0476-.3878.135-.1103.0875-.1879.2096-.2201.3467-.0323.137-.0173.2809.0425.4084.0598.1274.1609.2309.2869.2937l.0398.0199c.0864.043.1817.0652.2783.065h10.7719c.0966.0002.1919-.022.2784-.065l.0396-.0199c.126-.0628.227-.1662.2868-.2936s.0749-.2713.0427-.4083-.1096-.2591-.2199-.3466c-.1102-.0875-.2468-.1352-.3875-.1353z"/><path d="m36.7788 34.0217h-10.8513c-.1407.0002-.2772.0479-.3874.1354s-.1876.2095-.2198.3465c-.0322.1369-.0172.2807.0424.4081.0597.1274.1607.2309.2865.2938l.0396.0199c.0866.0429.1819.0651.2785.0648h10.7712c.0965.0003.1919-.0219.2784-.0648l.0396-.0199c.1258-.0628.2267-.1663.2864-.2937.0597-.1273.0747-.271.0426-.408-.0321-.1369-.1095-.259-.2196-.3465s-.2465-.1353-.3871-.1356z"/><path d="m21.9823 32.2154-.0184-.0197c-.0827-.0891-.1375-.2004-.1579-.3202-.0204-.1199-.0053-.243.0433-.3544s.1287-.2062.2304-.2728.2206-.102.3422-.102h17.612c.1215 0 .2405.0354.3422.102s.1818.1614.2304.2728.0636.2345.0433.3544c-.0204.1198-.0752.2311-.1579.3202l-.0184.0197c-.0586.0628-.1295.1129-.2082.1472-.0788.0343-.1637.0522-.2496.0524h-17.5756c-.0859-.0002-.1708-.0181-.2496-.0524-.0787-.0343-.1496-.0844-.2082-.1472z"/><path d="m11.4926 31.1465h8.4103c.1406.0002.2771.048.3873.1354.1102.0875.1876.2095.2198.3465.0322.1369.0173.2807-.0424.4081s-.1606.231-.2865.2939l-.0396.0199c-.0864.0429-.1817.0652-.2783.0649h-8.33c-.0966.0003-.1919-.022-.2784-.0649l-.0396-.0199c-.1258-.0629-.2267-.1664-.2864-.2937s-.0747-.271-.0426-.4079.1094-.259.2194-.3465c.1101-.0875.2464-.1354.387-.1358z"/><path d="m13.5063 23.1553c-.0001.1253-.0373.2478-.107.352s-.1687.1854-.2846.2334c-.1158.0479-.2432.0604-.3662.0359-.1229-.0244-.2359-.0848-.3245-.1735-.0886-.0886-.149-.2016-.1734-.3245-.0245-.123-.0119-.2504.036-.3662.048-.1159.1292-.2148.2334-.2845.1043-.0697.2268-.1069.3522-.1069.0833 0 .1657.0164.2427.0483.0769.0319.1468.0786.2057.1375s.1056.1288.1374.2058c.0319.0769.0483.1594.0483.2427z"/><path d="m28.4511 26.2018c.0017-.0064.0034-.0132.0053-.0197.0248-.0925.0279-.1895.0092-.2834s-.0587-.1823-.1171-.2583c-.0583-.0759-.1333-.1375-.2192-.1798-.086-.0423-.1805-.0643-.2762-.0642h-17.6148c-.0957-.0001-.1903.0218-.2762.0641-.08593.0424-.16098.1039-.21931.1799-.05834.0759-.09839.1643-.11708.2583-.0187.0939-.01551.1909.0093.2834.0017.0065.00357.0133.00544.0197.03572.1327.11412.2499.2231.3336s.24245.1292.37985.1295h17.6046c.1374-.0003.2709-.0458.3799-.1295s.1874-.2009.2232-.3336z"/><path d="m8.6077 26.0305c-.00007.1254-.0373.2479-.107.3521-.06969.1042-.16873.1854-.28457.2333-.11584.048-.24329.0605-.36624.036s-.23587-.0849-.3245-.1736c-.08862-.0887-.14896-.2016-.17339-.3246-.02443-.1229-.01186-.2504.03613-.3662s.12924-.2148.23348-.2844c.10424-.0697.2268-.1069.35216-.1069.16816.0001.3294.067.44827.1859.11888.119.18566.2802.18566.4484z"/><path d="m13.5063 28.9057c-.0001.1254-.0373.2479-.107.3521s-.1687.1854-.2846.2333c-.1158.0479-.2432.0605-.3662.036-.1229-.0245-.2359-.0849-.3245-.1735-.0886-.0887-.149-.2016-.1734-.3246-.0245-.1229-.0119-.2504.036-.3662.048-.1158.1292-.2148.2334-.2845.1043-.0696.2268-.1068.3522-.1069.1682.0001.3294.0669.4484.1859.1189.1189.1857.2802.1857.4484z"/><path d="m24.2972 34.6561c-.0001.1254-.0373.2479-.107.3521s-.1687.1854-.2846.2333c-.1158.048-.2432.0605-.3662.036-.1229-.0245-.2359-.0849-.3245-.1735-.0886-.0887-.149-.2016-.1734-.3246-.0245-.1229-.0119-.2504.036-.3662.048-.1158.1292-.2148.2334-.2845.1043-.0696.2268-.1068.3522-.1068.0832 0 .1657.0164.2427.0482.0769.0319.1468.0786.2057.1375s.1056.1289.1374.2058c.0319.077.0483.1594.0483.2427z"/><path d="m17.6668 37.5313c-.0001.1254-.0373.2479-.107.3521s-.1687.1854-.2846.2333c-.1158.048-.2433.0605-.3662.036-.123-.0245-.2359-.0849-.3245-.1736s-.149-.2016-.1734-.3246c-.0245-.1229-.0119-.2504.0361-.3662s.1293-.2148.2335-.2844c.1042-.0697.2268-.1069.3522-.1069.0832.0001.1657.0165.2426.0484s.1468.0786.2057.1375.1055.1288.1374.2057c.0318.077.0482.1594.0482.2427z"/></g></svg>

<svg width="48" height="48" viewBox="0 0 48 48" fill="none" xmlns="http://www.w3.org/2000/svg">
<rect width="48" height="48" rx="24" fill="#1D0E2D"/>
<path d="M27.1761 9.71997C24.4126 9.72105 21.7627 10.8198 19.8092 12.7744C17.8557 14.7291 16.7586 17.3797 16.7592 20.1432C16.7592 20.1505 16.7592 20.1575 16.7592 20.1649V20.1819C16.7667 20.3128 16.824 20.4359 16.9193 20.5259C17.0147 20.6159 17.141 20.6658 17.2721 20.6656H37.08C37.2111 20.6658 37.3373 20.6158 37.4327 20.5259C37.5281 20.4359 37.5853 20.3128 37.5927 20.1819L37.5936 20.1649C37.5936 20.1575 37.5936 20.1505 37.5936 20.1432C37.5942 17.3796 36.497 14.7289 34.5434 12.7743C32.5898 10.8196 29.9397 9.72092 27.1761 9.71997Z" fill="#53CBC8"/>
<path d="M9.86228 31.7809C9.86218 31.9063 9.82492 32.0288 9.7552 32.133C9.68549 32.2371 9.58647 32.3183 9.47063 32.3662C9.3548 32.4141 9.22737 32.4266 9.10443 32.4021C8.9815 32.3776 8.86859 32.3172 8.77998 32.2285C8.69136 32.1399 8.63102 32.0269 8.60658 31.904C8.58215 31.7811 8.59471 31.6536 8.64268 31.5378C8.69065 31.422 8.77187 31.323 8.87609 31.2534C8.98031 31.1837 9.10283 31.1465 9.22818 31.1465C9.31148 31.1465 9.39397 31.1629 9.47092 31.1948C9.54788 31.2267 9.61779 31.2734 9.67668 31.3323C9.73557 31.3912 9.78226 31.4612 9.81411 31.5382C9.84596 31.6151 9.86233 31.6976 9.86228 31.7809Z" fill="#E1147B"/>
<path d="M36.391 28.2714H15.1371C15.0289 28.2716 14.9227 28.2998 14.8287 28.3532C14.7347 28.4067 14.6562 28.4837 14.6009 28.5766C14.5456 28.6695 14.5153 28.7751 14.513 28.8832C14.5107 28.9913 14.5364 29.0982 14.5878 29.1933C14.5912 29.2 14.5948 29.2066 14.5983 29.2131C14.6519 29.3121 14.7312 29.3948 14.8279 29.4524C14.9247 29.51 15.0352 29.5403 15.1478 29.5401H36.3808C36.4933 29.5403 36.6039 29.5099 36.7006 29.4524C36.7973 29.3948 36.8767 29.3121 36.9302 29.2131L36.9407 29.1933C36.9921 29.0981 37.0178 28.9912 37.0155 28.8831C37.0131 28.775 36.9828 28.6693 36.9274 28.5764C36.872 28.4835 36.7934 28.4066 36.6994 28.3532C36.6054 28.2997 36.4991 28.2715 36.391 28.2714Z" fill="#E1147B"/>
<path d="M39.215 22.521H15.1365C15.0515 22.5212 14.9675 22.5387 14.8895 22.5725C14.8115 22.6063 14.7412 22.6556 14.6829 22.7174C14.6245 22.7792 14.5794 22.8523 14.5503 22.9321C14.5211 23.012 14.5086 23.0969 14.5133 23.1818C14.5133 23.1884 14.5133 23.195 14.5143 23.2017C14.5233 23.3608 14.5929 23.5105 14.7089 23.6199C14.8248 23.7293 14.9783 23.79 15.1377 23.7897H39.215C39.3744 23.79 39.5278 23.7292 39.6438 23.6198C39.7597 23.5105 39.8294 23.3608 39.8384 23.2017C39.8384 23.195 39.8384 23.1884 39.8394 23.1818C39.8442 23.0968 39.8315 23.0118 39.8023 22.9319C39.7731 22.8519 39.7279 22.7788 39.6694 22.717C39.611 22.6551 39.5405 22.6058 39.4624 22.5721C39.3843 22.5385 39.3001 22.521 39.215 22.521Z" fill="#E1147B"/>
<path d="M30.1491 36.8969H19.2975C19.1567 36.8969 19.0201 36.9445 18.9097 37.0319C18.7994 37.1194 18.7218 37.2415 18.6896 37.3786C18.6573 37.5156 18.6723 37.6595 18.7321 37.787C18.7919 37.9144 18.893 38.0179 19.019 38.0807L19.0588 38.1006C19.1452 38.1436 19.2405 38.1658 19.3371 38.1656H30.109C30.2056 38.1658 30.3009 38.1436 30.3874 38.1006L30.427 38.0807C30.553 38.0179 30.654 37.9145 30.7138 37.7871C30.7736 37.6597 30.7887 37.5158 30.7565 37.3788C30.7243 37.2418 30.6469 37.1197 30.5366 37.0322C30.4264 36.9447 30.2898 36.897 30.1491 36.8969Z" fill="#E1147B"/>
<path d="M36.7788 34.0217H25.9275C25.7868 34.0219 25.6503 34.0696 25.5401 34.1571C25.4299 34.2446 25.3525 34.3666 25.3203 34.5036C25.2881 34.6405 25.3031 34.7843 25.3627 34.9117C25.4224 35.0391 25.5234 35.1426 25.6492 35.2055L25.6888 35.2254C25.7754 35.2683 25.8707 35.2905 25.9673 35.2902H36.7385C36.835 35.2905 36.9304 35.2683 37.0169 35.2254L37.0565 35.2055C37.1823 35.1427 37.2832 35.0392 37.3429 34.9118C37.4026 34.7845 37.4176 34.6408 37.3855 34.5038C37.3534 34.3669 37.276 34.2448 37.1659 34.1573C37.0558 34.0698 36.9194 34.022 36.7788 34.0217Z" fill="#E1147B"/>
<path d="M21.9823 32.2154L21.9639 32.1957C21.8812 32.1066 21.8264 31.9953 21.806 31.8755C21.7856 31.7556 21.8007 31.6325 21.8493 31.5211C21.8979 31.4097 21.978 31.3149 22.0797 31.2483C22.1814 31.1817 22.3003 31.1463 22.4219 31.1463H40.0339C40.1554 31.1463 40.2744 31.1817 40.3761 31.2483C40.4778 31.3149 40.5579 31.4097 40.6065 31.5211C40.6551 31.6325 40.6701 31.7556 40.6498 31.8755C40.6294 31.9953 40.5746 32.1066 40.4919 32.1957L40.4735 32.2154C40.4149 32.2782 40.344 32.3283 40.2653 32.3626C40.1865 32.3969 40.1016 32.4148 40.0157 32.415H22.4401C22.3542 32.4148 22.2693 32.3969 22.1905 32.3626C22.1118 32.3283 22.0409 32.2782 21.9823 32.2154Z" fill="#E1147B"/>
<path d="M11.4926 31.1465H19.9029C20.0435 31.1467 20.18 31.1945 20.2902 31.2819C20.4004 31.3694 20.4778 31.4914 20.51 31.6284C20.5422 31.7653 20.5273 31.9091 20.4676 32.0365C20.4079 32.1639 20.307 32.2675 20.1811 32.3304L20.1415 32.3503C20.0551 32.3932 19.9598 32.4155 19.8632 32.4152H11.5332C11.4366 32.4155 11.3413 32.3932 11.2548 32.3503L11.2152 32.3304C11.0894 32.2675 10.9885 32.164 10.9288 32.0367C10.8691 31.9094 10.8541 31.7657 10.8862 31.6288C10.9183 31.4919 10.9956 31.3698 11.1056 31.2823C11.2157 31.1948 11.352 31.1469 11.4926 31.1465Z" fill="#E1147B"/>
<path d="M13.5063 23.1553C13.5062 23.2806 13.469 23.4031 13.3993 23.5073C13.3296 23.6115 13.2306 23.6927 13.1147 23.7407C12.9989 23.7886 12.8715 23.8011 12.7485 23.7766C12.6256 23.7522 12.5126 23.6918 12.424 23.6031C12.3354 23.5145 12.275 23.4015 12.2506 23.2786C12.2261 23.1556 12.2387 23.0282 12.2866 22.9124C12.3346 22.7965 12.4158 22.6976 12.52 22.6279C12.6243 22.5582 12.7468 22.521 12.8722 22.521C12.9555 22.521 13.0379 22.5374 13.1149 22.5693C13.1918 22.6012 13.2617 22.6479 13.3206 22.7068C13.3795 22.7657 13.4262 22.8356 13.458 22.9126C13.4899 22.9895 13.5063 23.072 13.5063 23.1553Z" fill="#E1147B"/>
<path d="M28.4511 26.2018C28.4528 26.1954 28.4545 26.1886 28.4564 26.1821C28.4812 26.0896 28.4843 25.9926 28.4656 25.8987C28.4469 25.8048 28.4069 25.7164 28.3485 25.6404C28.2902 25.5645 28.2152 25.5029 28.1293 25.4606C28.0433 25.4183 27.9488 25.3963 27.8531 25.3964H10.2383C10.1426 25.3963 10.048 25.4182 9.9621 25.4605C9.87617 25.5029 9.80112 25.5644 9.74279 25.6404C9.68445 25.7163 9.6444 25.8047 9.62571 25.8987C9.60701 25.9926 9.6102 26.0896 9.63501 26.1821C9.63671 26.1886 9.63858 26.1954 9.64045 26.2018C9.67617 26.3345 9.75457 26.4517 9.86355 26.5354C9.97253 26.6191 10.106 26.6646 10.2434 26.6649H27.848C27.9854 26.6646 28.1189 26.6191 28.2279 26.5354C28.3369 26.4517 28.4153 26.3345 28.4511 26.2018Z" fill="#E1147B"/>
<path d="M8.6077 26.0305C8.60763 26.1559 8.5704 26.2784 8.5007 26.3826C8.43101 26.4868 8.33197 26.568 8.21613 26.6159C8.10029 26.6639 7.97284 26.6764 7.84989 26.6519C7.72694 26.6274 7.61402 26.567 7.52539 26.4783C7.43677 26.3896 7.37643 26.2767 7.352 26.1537C7.32757 26.0308 7.34014 25.9033 7.38813 25.7875C7.43612 25.6717 7.51737 25.5727 7.62161 25.5031C7.72585 25.4334 7.84841 25.3962 7.97377 25.3962C8.14193 25.3963 8.30317 25.4632 8.42204 25.5821C8.54092 25.7011 8.6077 25.8623 8.6077 26.0305Z" fill="#E1147B"/>
<path d="M13.5063 28.9057C13.5062 29.0311 13.469 29.1536 13.3993 29.2578C13.3296 29.362 13.2306 29.4432 13.1147 29.4911C12.9989 29.539 12.8715 29.5516 12.7485 29.5271C12.6256 29.5026 12.5126 29.4422 12.424 29.3536C12.3354 29.2649 12.275 29.152 12.2506 29.029C12.2261 28.9061 12.2387 28.7786 12.2866 28.6628C12.3346 28.547 12.4158 28.448 12.52 28.3783C12.6243 28.3087 12.7468 28.2715 12.8722 28.2714C13.0404 28.2715 13.2016 28.3383 13.3206 28.4573C13.4395 28.5762 13.5063 28.7375 13.5063 28.9057Z" fill="#E1147B"/>
<path d="M24.2972 34.6561C24.2971 34.7815 24.2599 34.904 24.1902 35.0082C24.1205 35.1124 24.0215 35.1936 23.9056 35.2415C23.7898 35.2895 23.6624 35.302 23.5394 35.2775C23.4165 35.253 23.3035 35.1926 23.2149 35.104C23.1263 35.0153 23.0659 34.9024 23.0415 34.7794C23.017 34.6565 23.0296 34.529 23.0775 34.4132C23.1255 34.2974 23.2067 34.1984 23.3109 34.1287C23.4152 34.0591 23.5377 34.0219 23.6631 34.0219C23.7463 34.0219 23.8288 34.0383 23.9058 34.0701C23.9827 34.102 24.0526 34.1487 24.1115 34.2076C24.1704 34.2665 24.2171 34.3365 24.2489 34.4134C24.2808 34.4904 24.2972 34.5728 24.2972 34.6561Z" fill="#E1147B"/>
<path d="M17.6668 37.5313C17.6667 37.6567 17.6295 37.7792 17.5598 37.8834C17.4901 37.9876 17.3911 38.0688 17.2752 38.1167C17.1594 38.1647 17.0319 38.1772 16.909 38.1527C16.786 38.1282 16.6731 38.0678 16.5845 37.9791C16.4959 37.8904 16.4355 37.7775 16.4111 37.6545C16.3866 37.5316 16.3992 37.4041 16.4472 37.2883C16.4952 37.1725 16.5765 37.0735 16.6807 37.0039C16.7849 36.9342 16.9075 36.897 17.0329 36.897C17.1161 36.8971 17.1986 36.9135 17.2755 36.9454C17.3524 36.9773 17.4223 37.024 17.4812 37.0829C17.5401 37.1418 17.5867 37.2117 17.6186 37.2886C17.6504 37.3656 17.6668 37.448 17.6668 37.5313Z" fill="#E1147B"/>
</svg>
